assets/img/braze_icons/log-in-04-braze-pink-dark.svg

<svg fill="none" height="48" viewBox="0 0 48 48" width="48" xmlns="http://www.w3.org/2000/svg"><g fill="#91186e"><path d="m24 6c-6.66 0-12.4779 3.61602-15.59316 9.0015-.55309.9561-1.77654 1.2828-2.73267.7297-.95612-.5531-1.28284-1.7765-.72976-2.7327 3.80089-6.57055 10.90999-10.9985 19.05559-10.9985 12.1502 0 22 9.8497 22 22s-9.8498 22-22 22c-8.1456 0-15.2547-4.428-19.05559-10.9986-.55308-.9561-.22636-2.1795.72976-2.7326.95613-.5531 2.17958-.2264 2.73267.7297 3.11526 5.3855 8.93316 9.0015 15.59316 9.0015 9.9411 0 18-8.0589 18-18s-8.0589-18-18-18z"/><path d="m22.5858 14.5858c.781-.7811 2.0474-.7811 2.8284 0l8 8c.7811.781.7811 2.0474 0 2.8284l-8 8c-.781.7811-2.0474.7811-2.8284 0-.7811-.781-.7811-2.0474 0-2.8284l4.5858-4.5858h-21.1716c-1.10457 0-2-.8954-2-2s.89543-2 2-2h21.1716l-4.5858-4.5858c-.7811-.781-.7811-2.0474 0-2.8284z"/></g></svg>

<svg width="48" height="48" viewBox="0 0 48 48" fill="none" xmlns="http://www.w3.org/2000/svg">
<path d="M24 6C17.34 6 11.5221 9.61602 8.40684 15.0015C7.85375 15.9576 6.6303 16.2843 5.67417 15.7312C4.71805 15.1781 4.39133 13.9547 4.94441 12.9985C8.7453 6.42795 15.8544 2 24 2C36.1502 2 46 11.8497 46 24C46 36.1503 36.1502 46 24 46C15.8544 46 8.7453 41.572 4.94441 35.0014C4.39133 34.0453 4.71805 32.8219 5.67417 32.2688C6.6303 31.7157 7.85375 32.0424 8.40684 32.9985C11.5221 38.384 17.34 42 24 42C33.9411 42 42 33.9411 42 24C42 14.0589 33.9411 6 24 6Z" fill="#91186E"/>
<path d="M22.5858 14.5858C23.3668 13.8047 24.6332 13.8047 25.4142 14.5858L33.4142 22.5858C34.1953 23.3668 34.1953 24.6332 33.4142 25.4142L25.4142 33.4142C24.6332 34.1953 23.3668 34.1953 22.5858 33.4142C21.8047 32.6332 21.8047 31.3668 22.5858 30.5858L27.1716 26H6C4.89543 26 4 25.1046 4 24C4 22.8954 4.89543 22 6 22H27.1716L22.5858 17.4142C21.8047 16.6332 21.8047 15.3668 22.5858 14.5858Z" fill="#91186E"/>
</svg>
